X:1
T:Title
%%score { 1 | 2 }
L:1/8
M:4/2
K:Eb
V:1 treble nm="Grand Piano"
V:2 bass 
V:1
 z8 z2 E2 F2 G2 | A6 G2 G2 F2 [FB]2 [DG]2 |[M:5/4] F4 E6 |[M:3/4] E2 A2 G2 | %4
[M:8/4] c6 B2 A2 G2 F2 E2 |[M:5/4] [DF]2- [DF]2- [DF]6 |[M:3/4] E2 G2 [FB]2 | %7
[M:8/4] [Ee]6 [Ed]2 [Ec]2 [Ee]2 [Ed]2 [Ec]2 |[M:5/4] [EB]4 [FB]6 |[M:3/4] [=EB]2 [GB]2 A2 | %10
[M:8/4] G6 A2 B2 A2 [B,DG]3 [A,DF] |[M:9/4] .[G,E]12 z6 |[M:8/4] [A,CE]16 | [G,B,E]16 |] %14
V:2
 z8 z2 [E,G,]2 [E,A,E]2 [E,B,E]2 | [E,CE]6 [E,B,E]2 [E,=A,C]2 [E,A,C]2 [D,_A,]2 [B,,B,]2 | %2
[M:5/4] [E,A,D]4 [E,G,]6 |[M:3/4] [E,G,]2 [F,CE]2 [G,B,E]2 | %4
[M:8/4] [A,E]6 [G,B,E]2 [F,B,D]2 [E,B,E]2 [F,=A,C]2 [F,A,C]2 | %5
[M:5/4] [B,,B,]2- [B,,B,]2- [B,,B,]6 |[M:3/4] [E,G,]2 [E,B,E]2 [D,F,]2 | %7
[M:8/4] [C,G,]6 [B,,G,]2 [A,,A,]2 [A,,C]2 [A,,B,]2 [A,,A,]2 |[M:5/4] [E,G,]4 [D,F,]6 | %9
[M:3/4] [C,G,]2 [=E,C]2 [F,CF]2 |[M:8/4] [B,E]6 [A,CE]2 [G,C=E]2 [F,CF]2 B,,3 B,, | %11
[M:9/4] .E,12 z6 |[M:8/4] A,,16 | E,16 |] %14

